X:1
T:Title
%%score { ( 1 3 5 ) | ( 2 4 ) }
L:1/8
M:4/4
K:C
V:1 treble nm="Grand Piano"
V:3 treble 
V:5 treble 
V:2 bass 
V:4 bass 
V:1
 z4 z2[Q:1/4=100] [CE]>[DF] | [EG]2 [Ec]2 [Ge]2 [Gc]>[Gc] | [Fc]2 [FA]2 [EG]2 G>G | G6 z2 | G6 z2 | %5
 [EG]2 [Ec]2 [Ge]2 [Gc]>[Gc] | [Fc]2 [CFA]2 [CEG]2 G>G | z2 D>E F>c d>d | %8
[M:3/4] c2- [Cc-]>[Dc-] [Ec]2 |[M:1/4] G>G |[M:4/4] c2- [Gc-]2 [Fc]>d c>A | z2 G4 z2 | %12
 z2 E2 z z/ G/ A>A | G6 z2 | c2- [Gc-]2 [Fc]>d c>A | [EG]2 z z/ F/ E2 [Gc]>[Ad] | e6 z2 | %17
[M:3/4] c6 |] %18
V:2
 z4 z2 [C,G,]>[C,G,] | [C,C]2 [C,G,]2 [C,C]2 [E,C]>[E,C] | [F,A,]2 [F,C]2 [C,C]2 z2 | %3
 z2[K:treble] [G,B,]>[G,C] [G,D]>[G,CE] [G,B,F]>[K:bass][G,C] | %4
 [C,C]2 [D,B,]>[D,B,] E,2 [C,G,C]>[C,G,] | [C,C]2 [C,G,]2 [C,C]2 [E,C]>[E,C] | %6
 [F,A,]2 F,2 C,2[K:treble] E>E | D2 [G,B,]>[G,C] [G,D]>[G,CE] [G,B,F]>[G,B,F] | %8
[M:3/4][K:bass] z2 E,>G, G,2 |[M:1/4] z2 |[M:4/4] [C,G,]2 [E,C]2 [F,A,]>[F,A,F] [F,A,F]>[F,CF] | %11
 [C,C]2 [E,C]>[G,B,] [C,C]2 [C,C]>[C,C] | [G,B,D]2 [G,C]2 [G,D]2 [F,G,D]>[F,B,G] | %13
 [E,C]2 [D,B,]2 [C,C]2 z2 | [C,G,]2 [E,C]2 [F,A,]>[F,A,F] [F,A,F]>[F,B,F] | %15
 [C,C]2 [E,C]>[G,B,] [C,C]2 [E,C]>[F,C] | [G,CG]2 [A,C]2 z z/ E/ [G,B,F]>[G,B,F] | %17
[M:3/4][K:bass] z2 E,>F, G,2 |] %18
V:3
 x8 | x8 | x8 | z2 D>E F>G A>E | E2 D>D C2 E>[DF] | x8 | x8 | G6 z2 |[M:3/4] [CE]2 z2 z2 | %9
[M:1/4] x2 |[M:4/4] E2 z2 z4 | [EG]2 z z/ F/ E2 [EG]>[EG] | G6 z2 | z2 F2 E2 G>G | E2 z2 z4 | %15
 z2 G4 z2 | z2 c2 G>c d>d |[M:3/4] [CE]2 C>D E2 |] %18
V:4
 x8 | x8 | x8 | x2[K:treble] x11/2[K:bass] x/ | x8 | x8 | x6[K:treble] x2 | x8 | %8
[M:3/4][K:bass] C,6 |[M:1/4] x2 |[M:4/4] x8 | x8 | x8 | x8 | x8 | x8 | z4 [G,C]2 z2 | %17
[M:3/4][K:bass] C,6 |] %18
V:5
 x8 | x8 | x8 | x8 | x8 | x8 | x8 | x8 |[M:3/4] x6 |[M:1/4] x2 |[M:4/4] x8 | x8 | z4 F2 z2 | x8 | %14
 x8 | x8 | x8 |[M:3/4] x6 |] %18

